X: 522
U:~=!turn!
M:C
L:1/8
K:F lydian
f | !p!e>c (e/f/)g e<cc>f | e<cc>f ((3efg) ((3fga) | e>c ((3efg) e<cc>e | f>dB>G B/c/d f2 |
e>c (e/f/)g e<cc>f | e<cc>f ((3efg) ((3fga) | ((3gfe) ((3dcB) ((3cBA) ((3GFE) | F>DB,<G, B,CD [B,F] |]


